X:135
T:The Thunder Bay Waltz
M:3/4
L:1/4
C:© G.Stobbe & P.Gitlitz 2000
R:Waltz
B:Giblitz Fancy
K:Bm
"Bm"a>f e/d/|"Bm/F#"B2B/A/|"Bm"F/A/ Bd|"A"c3|!
"C#m"E.cz/d/|"E"c3|"E/C#"E .dz/c/|"Bm"B>d e/f/|!
"Bm"a>f e/d/|"Bm/F#"B2B/A/|"Bm"F/A/ Bf|"A"e3|!
"C#m"{d}cB_B|d3|"C#m"cB_B|"Bm"B2_B|!
"D"A>B d/B/|"D/A"AF=F|"E7"E>c e/c/|"E7/B"B2_B|!
"A7"A>c e/c/|"A7/E"Bc_B|"D"A>F A/F/|"Faug"=F2(3^F/G/^G/|!
"D"A>B d/B/| AF=F|"E7"E>c e/c/|B2_B|!
"A7"A>c e/c/|"A7/E"BcA|"D"d3|"A7"[E3c3]|]
